X:1
T:Title
%%score { ( 1 3 ) | ( 2 4 ) }
L:1/8
M:6/8
K:Ab
V:1 treble nm="Grand Piano"
V:3 treble 
V:2 bass 
V:4 bass 
V:1
 z3 z2[Q:1/4=92] [CE] | [Ec]2 [CE] [CF]2 C | E6 | G2 F E2 d |[M:5/8] [Ec]-[Ec]- [Ec]3 | %5
[M:1/8] [CE] |[M:3/4] [Ec]2 [CE] [CF]2 C | E2 F G2 B | [=DB]2 [DF] [DG]2 [DF] |[M:5/8] E-E- E3 | %10
[M:1/8] [CE] |[M:3/4] [Ec]2 [Ec] [Fd]2 [Ec] | cB- B3 E | B2 B c2 B |[M:5/8] [CA]-[CA]- [CA]3 | %15
[M:1/8] [EA] |[M:3/4] [FA]2 [FA][FB] [FA][DF] | [CE]2 [CA] [Ec]2 [Ec] | [=Dc]2 [DB] [DA]2 [DF] | %19
[M:5/8] B-B- B3 |[M:1/8] [CE] |[M:3/4] [Ec]2 [Ec] [Fd]2 [Ec] | cB- B3 E | B2 B c2 B | %24
[M:5/8] [CA]-[CA]- [CA]3 |[M:1/8] [EA] |[M:3/4] [FA]2 [FA][FB] [A,FA][A,DF] | %27
[M:7/8] [A,C]2 [Ec] [_Ge]3 [Fd] |[M:3/4] c E2 B2 [CA] |[M:5/8] [CA]-[CA]- [CA]3 |] %30
V:2
 z3 z2 [A,,A,] | [A,,A,]2 [A,,A,] [A,,A,]2 [A,,E,A,] | .[G,B,]3 z3 | %3
 [E,B,D]2 [E,A,D] [E,G,D]2 [E,G,E] |[M:5/8] [A,,A,]-[A,,A,]- [A,,A,]3 |[M:1/8] [A,,A,] | %6
[M:3/4] [A,,A,]2 [A,,A,] [A,,A,]2 [A,,E,A,] | [E,G,B,]2 [E,A,B,] [E,B,D]2 [E,G,E] | %8
 [B,,F,]2 [B,,B,] [B,,B,]2 [B,,A,] |[M:5/8] [G,B,]2 z z2 |[M:1/8] [A,,A,] | %11
[M:3/4] [A,,A,]2 [A,,A,] [A,,A,]2 [A,,A,] | [E,A,E][E,G,D]- [E,G,D]3 [E,G,D] | %13
 [E,G,D]2 [E,G,D] [E,G,E]2 [E,G,D] |[M:5/8] [A,,A,]-[A,,A,]- [A,,A,]3 |[M:1/8] [C,A,] | %16
[M:3/4] [D,A,]2 [D,A,][D,A,] [D,A,][D,A,] | [A,,A,]2 [A,,A,] [A,,A,]2 [A,,A,] | %18
 [B,,F,]2 [B,,F,] [B,,B,]2 [B,,A,] |[M:5/8] [G,E]2 z z2 |[M:1/8] [A,,A,] | %21
[M:3/4] [A,,A,]2 [A,,A,] [A,,A,]2 [A,,A,] | [F,A,E][E,G,D]- [E,G,D]3 [E,G,D] | %23
 [E,G,D]2 [E,G,D] [E,G,E]2 [E,G,D] |[M:5/8] [A,,A,]-[A,,A,]- [A,,A,]3 |[M:1/8] [C,A,] | %26
[M:3/4] [D,A,]2 [D,A,][D,A,] D,D, |[M:7/8] z A[A,,A,] [C,A,]3 [D,A,] | %28
[M:3/4] [E,A,E] [E,A,C]2 [E,G,D]2 [A,,A,] |[M:5/8] [A,,A,]-[A,,A,]- [A,,A,]3 |] %30
V:3
 x6 | x6 | z2 C D2 E | x6 |[M:5/8] x5 |[M:1/8] x |[M:3/4] x6 | x6 | x6 |[M:5/8] z2 C D2 | %10
[M:1/8] x |[M:3/4] x6 | x6 | x6 |[M:5/8] x5 |[M:1/8] x |[M:3/4] x6 | x6 | x6 |[M:5/8] z2 =D _D2 | %20
[M:1/8] x |[M:3/4] x6 | x6 | x6 |[M:5/8] x5 |[M:1/8] x |[M:3/4] x6 |[M:7/8] E z z z z z2 | %28
[M:3/4] x6 |[M:5/8] x5 |] %30
V:4
 x6 | x6 | E,2- [E,-A,] [E,B,]2 [E,G,D] | x6 |[M:5/8] x5 |[M:1/8] x |[M:3/4] x6 | x6 | x6 | %9
[M:5/8] E,2- [E,-A,] [E,B,]2 |[M:1/8] x |[M:3/4] x6 | x6 | x6 |[M:5/8] x5 |[M:1/8] x |[M:3/4] x6 | %17
 x6 | x6 |[M:5/8] E,2- [E,-A,] [E,B,]2 |[M:1/8] x |[M:3/4] x6 | x6 | x6 |[M:5/8] x5 |[M:1/8] x | %26
[M:3/4] x6 |[M:7/8] A,,2 z z z z2 |[M:3/4] x6 |[M:5/8] x5 |] %30

